src/images/technology-icons/angular-logo.svg

<?xml version="1.0" encoding="UTF-8"?>
<svg width="280px" height="298px" viewBox="0 0 280 298" version="1.1" xmlns="http://www.w3.org/2000/svg" xmlns:xlink="http://www.w3.org/1999/xlink">
    <!-- Generator: Sketch 42 (36781) - http://www.bohemiancoding.com/sketch -->
    <title>angular-logo</title>
    <desc>Created with Sketch.</desc>
    <defs></defs>
    <g id="Page-1" stroke="none" stroke-width="1" fill="none" fill-rule="evenodd">
        <g id="angular-logo" fill-rule="nonzero">
            <g id="Shape">
                <polygon fill="#DD0031" points="140 0 140 0 140 0 1.34042553 49.4468085 22.4893617 232.787234 140 297.87234 140 297.87234 140 297.87234 257.510638 232.787234 278.659574 49.4468085"></polygon>
                <polygon fill="#C3002F" points="140 0 140 33.0638298 140 32.9148936 140 183.787234 140 183.787234 140 297.87234 140 297.87234 257.510638 232.787234 278.659574 49.4468085"></polygon>
                <path d="M140,32.9148936 L53.3191489,227.276596 L53.3191489,227.276596 L85.6382979,227.276596 L85.6382979,227.276596 L103.06383,183.787234 L176.638298,183.787234 L194.06383,227.276596 L194.06383,227.276596 L226.382979,227.276596 L226.382979,227.276596 L140,32.9148936 L140,32.9148936 L140,32.9148936 L140,32.9148936 L140,32.9148936 Z M165.319149,156.978723 L114.680851,156.978723 L140,96.0638298 L165.319149,156.978723 Z" fill="#FFFFFF"></path>
            </g>
        </g>
    </g>
</svg>

<svg width="280" height="298" viewBox="0 0 280 298" xmlns="http://www.w3.org/2000/svg"><title>angular-logo</title><g fill-rule="nonzero" fill="none"><path fill="#DD0031" d="M140 0L1.34 49.447l21.15 183.34L140 297.872l117.51-65.085 21.15-183.34z"/><path fill="#C3002F" d="M140 0v33.064-.15V297.873l117.51-65.085 21.15-183.34z"/><path d="M140 32.915L53.32 227.277h32.318l17.426-43.49h73.574l17.426 43.49h32.319L140 32.915zm25.32 124.064h-50.64L140 96.064l25.32 60.915z" fill="#FFF"/></g></svg>
